images/rio.svg

<svg height="250" viewBox="0 0 250 250" width="250" xmlns="http://www.w3.org/2000/svg"><path d="m3.96875 128.640625c-2.191406-66.664063 50.074219-122.484375 116.738281-124.671875 66.667969-2.191406 122.484375 50.074219 124.675781 116.738281 2.191407 66.667969-50.074218 122.484375-116.742187 124.675781-66.664063 2.191407-122.484375-50.074218-124.671875-116.742187zm0 0"/><path d="m128.742188 88.164062c4.832031-7.40625 10.871093-13.203124 18.117187-17.390624 7.246094-4.347657 15.300781-6.523438 24.15625-6.523438v43.722656h-11.355469c-10.304687 0-18.035156 2.253906-23.1875 6.761719-5.152344 4.347656-7.730468 12.078125-7.730468 23.1875v62.5625h-41.300782v-134.785156h41.300782zm0 0" fill="#fff"/></svg>

<svg xmlns="http://www.w3.org/2000/svg" xmlns:xlink="http://www.w3.org/1999/xlink" width="250px" height="250px" viewBox="0 0 250 250" version="1.1">
<g id="surface1">
<path style=" stroke:none;fill-rule:nonzero;fill:rgb(0%,0%,0%);fill-opacity:1;" d="M 3.96875 128.640625 C 1.777344 61.976562 54.042969 6.15625 120.707031 3.96875 C 187.375 1.777344 243.191406 54.042969 245.382812 120.707031 C 247.574219 187.375 195.308594 243.191406 128.640625 245.382812 C 61.976562 247.574219 6.15625 195.308594 3.96875 128.640625 Z M 3.96875 128.640625 "/>
<path style=" stroke:none;fill-rule:nonzero;fill:rgb(100%,100%,100%);fill-opacity:1;" d="M 128.742188 88.164062 C 133.574219 80.757812 139.613281 74.960938 146.859375 70.773438 C 154.105469 66.425781 162.160156 64.25 171.015625 64.25 L 171.015625 107.972656 L 159.660156 107.972656 C 149.355469 107.972656 141.625 110.226562 136.472656 114.734375 C 131.320312 119.082031 128.742188 126.8125 128.742188 137.921875 L 128.742188 200.484375 L 87.441406 200.484375 L 87.441406 65.699219 L 128.742188 65.699219 Z M 128.742188 88.164062 "/>
</g>
</svg>
